static/assets/img/icons/theme/files/download.svg

<svg height="24" viewBox="0 0 24 24" width="24" xmlns="http://www.w3.org/2000/svg"><g fill="none" fill-rule="evenodd"><path d="m0 0h24v24h-24z" opacity="0"/><g fill="#000"><path d="m2 13c0-.5.5-1 1-1s1 .5 1 1v5c0 1.1045695.8954305 2 2 2h12c1.1045695 0 2-.8954305 2-2v-5c0-.5522847.4477153-1 1-1s1 .4477153 1 1v5c0 2.209139-1.790861 4-4 4h-12c-2.209139 0-4-1.790861-4-4 0-3 0-4.6666667 0-5z" fill-rule="nonzero" opacity=".3"/><rect height="14" opacity=".3" rx="1" transform="matrix(-1 0 0 -1 24 16)" width="2" x="11" y="1"/><path d="m7.70710678 15.7071068c-.39052429.3905243-1.02368927.3905243-1.41421356 0s-.39052429-1.0236893 0-1.4142136l4.99999998-4.99999998c.3760817-.37608169.9807432-.39198283 1.3760715-.03618737l5 4.50000005c.4105101.369459.4437885 1.0017488.0743294 1.4122588-.369459.4105101-1.0017488.4437885-1.4122588.0743294l-4.2947978-3.865318z" fill-rule="nonzero" transform="matrix(-1 0 0 -1 24.000008 24.999998)"/></g></g></svg>

<svg width="24px" height="24px" viewBox="0 0 24 24" version="1.1" xmlns="http://www.w3.org/2000/svg" xmlns:xlink="http://www.w3.org/1999/xlink">
    <title>Icon For Download</title>
    <g stroke="none" stroke-width="1" fill="none" fill-rule="evenodd">
        <rect opacity="0" x="0" y="0" width="24" height="24"></rect>
        <path d="M2,13 C2,12.5 2.5,12 3,12 C3.5,12 4,12.5 4,13 C4,13.3333333 4,15 4,18 C4,19.1045695 4.8954305,20 6,20 L18,20 C19.1045695,20 20,19.1045695 20,18 L20,13 C20,12.4477153 20.4477153,12 21,12 C21.5522847,12 22,12.4477153 22,13 L22,18 C22,20.209139 20.209139,22 18,22 L6,22 C3.790861,22 2,20.209139 2,18 C2,15 2,13.3333333 2,13 Z" fill="#000000" fill-rule="nonzero" opacity="0.3"></path>
        <rect fill="#000000" opacity="0.3" transform="translate(12.000000, 8.000000) rotate(-180.000000) translate(-12.000000, -8.000000) " x="11" y="1" width="2" height="14" rx="1"></rect>
        <path d="M7.70710678,15.7071068 C7.31658249,16.0976311 6.68341751,16.0976311 6.29289322,15.7071068 C5.90236893,15.3165825 5.90236893,14.6834175 6.29289322,14.2928932 L11.2928932,9.29289322 C11.6689749,8.91681153 12.2736364,8.90091039 12.6689647,9.25670585 L17.6689647,13.7567059 C18.0794748,14.1261649 18.1127532,14.7584547 17.7432941,15.1689647 C17.3738351,15.5794748 16.7415453,15.6127532 16.3310353,15.2432941 L12.0362375,11.3779761 L7.70710678,15.7071068 Z" fill="#000000" fill-rule="nonzero" transform="translate(12.000004, 12.499999) rotate(-180.000000) translate(-12.000004, -12.499999) "></path>
    </g>
</svg>
